X:621
T:Bring Back The Buailse
C:David Gilsenan
L:1/8
Q:1/4=120
M:4/4
K: Dmin
R: song
|:"Dm" z2 aa f2 d2 |"Gm" z aba- ab g2 |"A" z aba- agfg |"Dm" aaba z gfe |
"Dm" d2 aa f2 d2 | "Gm" z aba- ab g2 |"A" z aba- agfe |1"Dm" d2 e2 f2 g2 :|2"Dm" d2 z2 z4 ||$ z4 z [Fd][Fd][Fd] | 
"Dm" [Af]8 |"Gm" [Ge]8 |"A" [Ge] [Ge]2 [Ge] [Af]2 [Ge][Fd] |"Dm" z2 [Fd]2 [Fd]2 [Fd]2 |
"Dm" [Af]8 |"Gm" [Ge]8 |"A""^Slan" [Ge] [Ge]2 [Ge] [Af]2 [Ge][Fd] |"Dm" z8 ||

